images/icon/group6.svg

<svg width="94" height="45" viewBox="0 0 94 45" fill="none" xmlns="http://www.w3.org/2000/svg">
<path d="M47.425 20.843C46.9819 20.2532 46.7699 19.5561 46.8203 18.8544V15.9713C46.8203 15.0874 47.0207 14.4158 47.4216 13.9562C47.8224 13.4967 48.511 13.268 49.4871 13.2699C50.4044 13.2699 51.0555 13.4654 51.4405 13.8565C51.8605 14.3555 52.0648 14.9657 52.018 15.5812V16.2587H50.3772V15.5724C50.383 15.3477 50.3671 15.123 50.3296 14.9007C50.306 14.7486 50.2234 14.608 50.0952 14.5018C49.9267 14.3873 49.7145 14.3318 49.5007 14.3463C49.2759 14.3319 49.0529 14.3904 48.8756 14.5106C48.7327 14.6283 48.6374 14.7825 48.6038 14.9505C48.5567 15.1859 48.5351 15.4245 48.5393 15.6633V19.1624C48.5134 19.5 48.5858 19.8378 48.7499 20.145C48.8315 20.2489 48.9448 20.3313 49.0774 20.3831C49.2099 20.4349 49.3564 20.454 49.5007 20.4383C49.7109 20.4532 49.9195 20.3964 50.0816 20.2799C50.2153 20.1654 50.3013 20.0158 50.3262 19.8546C50.3645 19.6225 50.3816 19.3881 50.3772 19.1536V18.4438H52.018V19.092C52.0641 19.7336 51.8648 20.3704 51.4507 20.9046C51.0736 21.3329 50.4315 21.547 49.4871 21.547C48.5427 21.547 47.8292 21.3182 47.425 20.843Z" fill="#AFB1B8"/>
<path d="M54.2569 20.8724C53.8424 20.4236 53.6352 19.7696 53.6352 18.9043V15.8715C53.6352 15.0151 53.8424 14.3669 54.2569 13.9269C54.6713 13.487 55.3644 13.268 56.3359 13.2699C57.3007 13.2699 57.9904 13.4889 58.4048 13.9269C58.8193 14.3669 59.0299 15.0151 59.0299 15.8715V18.9043C59.0299 19.7608 58.8193 20.4178 58.398 20.8694C57.9768 21.3211 57.2906 21.547 56.3359 21.547C55.3813 21.547 54.6747 21.3182 54.2569 20.8724ZM57.1003 20.145C57.2487 19.8639 57.3163 19.556 57.2974 19.2475V15.5342C57.3164 15.2317 57.2499 14.9297 57.1037 14.6543C57.0205 14.5482 56.9043 14.4644 56.7686 14.4125C56.6328 14.3607 56.4829 14.3428 56.3359 14.361C56.1885 14.3433 56.0383 14.3613 55.9021 14.4131C55.7659 14.4649 55.6491 14.5484 55.5648 14.6543C55.4154 14.9289 55.3477 15.2313 55.3678 15.5342V19.2651C55.3471 19.5737 55.4148 19.8819 55.5648 20.1626C55.6604 20.2572 55.7785 20.333 55.9109 20.385C56.0433 20.4369 56.1871 20.4638 56.3326 20.4638C56.478 20.4638 56.6218 20.4369 56.7542 20.385C56.8866 20.333 57.0047 20.2572 57.1003 20.1626V20.145Z" fill="#AFB1B8"/>
<path d="M61.0035 13.3584H62.7701L64.0984 18.954L65.4573 13.3584H67.1763L67.3496 21.4351H66.079L65.9431 15.8219L64.6318 21.4351H63.6126L62.2537 15.8014L62.128 21.4351H60.8439L61.0035 13.3584Z" fill="#AFB1B8"/>
<path d="M69.3302 13.3584H72.0819C73.6673 13.3584 74.4599 14.1229 74.4599 15.6518C74.4599 17.1162 73.6254 17.8474 71.9562 17.8455H71.0186V21.4351H69.32L69.3302 13.3584ZM71.6811 16.8102C71.8489 16.8286 72.0193 16.8153 72.1806 16.7712C72.3419 16.7272 72.4902 16.6534 72.6153 16.5551C72.8101 16.2823 72.896 15.9619 72.8599 15.643C72.8688 15.3966 72.8414 15.1502 72.7783 14.9098C72.7541 14.8295 72.7116 14.7542 72.6533 14.6882C72.5949 14.6222 72.522 14.567 72.4386 14.5256C72.2028 14.428 71.9422 14.3836 71.6811 14.3966H71.022V16.8102H71.6811Z" fill="#AFB1B8"/>
<path d="M76.9094 13.3584H78.7337L80.6055 21.4351H79.0225L78.6522 19.5728H77.0249L76.6444 21.4351H75.0376L76.9094 13.3584ZM78.4687 18.6373L77.8334 15.2471L77.1982 18.6373H78.4687Z" fill="#AFB1B8"/>
<path d="M82.1173 13.3584H83.3063L85.5825 17.9657V13.3584H86.9923V21.4351H85.861L83.5713 16.6255V21.4351H82.1139L82.1173 13.3584Z" fill="#AFB1B8"/>
<path d="M90.2945 18.3556L88.4022 13.3698H89.9955L91.1506 16.5724L92.2343 13.3698H93.7936L91.9251 18.3556V21.4351H90.2945V18.3556Z" fill="#AFB1B8"/>
<path d="M50.0477 24.9664V25.3888H48.6617V28.6707H48.0807V25.3888H46.6879V24.9664H50.0477Z" fill="#AFB1B8"/>
<path d="M54.3927 28.671H53.9442C53.8987 28.6735 53.8538 28.6609 53.8185 28.6358C53.7846 28.6143 53.7587 28.5848 53.7438 28.5508L53.3429 27.6709H51.4201L51.0192 28.5508C51.0078 28.5876 50.9869 28.6217 50.958 28.6505C50.9225 28.675 50.8778 28.6876 50.8324 28.6857H50.3839L52.0825 24.9816H52.6737L54.3927 28.671ZM51.5797 27.2955H53.1833L52.5038 25.7881C52.4537 25.6741 52.4117 25.5575 52.3781 25.4391C52.3543 25.5095 52.3339 25.5769 52.3136 25.6356L52.2524 25.791L51.5797 27.2955Z" fill="#AFB1B8"/>
<path d="M57.3211 28.3072C57.4275 28.312 57.5341 28.312 57.6404 28.3072C57.7323 28.299 57.8232 28.2843 57.9122 28.2632C57.9954 28.2456 58.0772 28.223 58.1568 28.1957C58.2316 28.1693 58.3063 28.137 58.3844 28.1048V27.2718H57.705C57.6882 27.2726 57.6714 27.2704 57.6556 27.2653C57.6398 27.2603 57.6254 27.2525 57.6133 27.2424C57.6021 27.2341 57.5933 27.2237 57.5874 27.212C57.5815 27.2003 57.5787 27.1877 57.5793 27.175V26.8904H58.8974V28.3101C58.7898 28.3766 58.6762 28.4354 58.5577 28.4861C58.4366 28.5377 58.3104 28.5799 58.1806 28.6122C58.0417 28.6475 57.8996 28.673 57.7559 28.6885C57.5912 28.7043 57.4257 28.7121 57.26 28.712C56.967 28.7141 56.6763 28.6673 56.4038 28.5741C56.1495 28.4858 55.9184 28.3541 55.7244 28.1869C55.5353 28.018 55.3864 27.8187 55.2862 27.6003C55.1791 27.3547 55.1261 27.0941 55.1299 26.8318C55.1263 26.5678 55.1781 26.3055 55.2828 26.0574C55.3805 25.8379 55.5297 25.6382 55.721 25.4708C55.9149 25.3041 56.1461 25.1734 56.4005 25.0865C56.6914 24.992 57.0001 24.9453 57.3109 24.9487C57.4691 24.9485 57.627 24.9593 57.7831 24.9809C57.9212 25.0003 58.0567 25.0318 58.1874 25.0748C58.3062 25.1133 58.4201 25.1625 58.5271 25.2214C58.6312 25.2793 58.7301 25.3441 58.8227 25.415L58.6596 25.6438C58.6468 25.6647 58.6278 25.6823 58.6045 25.6947C58.5812 25.707 58.5545 25.7138 58.5271 25.7142C58.4895 25.7132 58.453 25.703 58.4218 25.6849C58.3708 25.6614 58.3165 25.6321 58.2553 25.5969C58.1831 25.5578 58.1069 25.5244 58.0277 25.4972C57.9265 25.4621 57.8219 25.4346 57.7152 25.415C57.5729 25.3924 57.4284 25.3816 57.2837 25.3828C57.0596 25.3806 56.8371 25.4155 56.6281 25.4854C56.439 25.5509 56.2686 25.651 56.1287 25.7788C55.9879 25.9119 55.8803 26.0687 55.8127 26.2393C55.661 26.6405 55.661 27.0729 55.8127 27.4741C55.8871 27.6484 56.0028 27.8072 56.1525 27.9405C56.2918 28.0676 56.4609 28.1676 56.6485 28.2338C56.8645 28.2979 57.0934 28.3228 57.3211 28.3072Z" fill="#AFB1B8"/>
<path d="M62.7362 28.2484H64.5911V28.6707H62.1689V24.9664H62.7498L62.7362 28.2484Z" fill="#AFB1B8"/>
<path d="M66.5208 28.6707H65.9398V24.9664H66.5208V28.6707Z" fill="#AFB1B8"/>
<path d="M68.6814 24.984C68.7159 25.001 68.746 25.024 68.7697 25.0515L71.253 27.8438C71.2497 27.7999 71.2497 27.7558 71.253 27.7118C71.253 27.6708 71.253 27.6297 71.253 27.5916V24.9518H71.7592V28.671H71.4671C71.4238 28.674 71.3804 28.6669 71.3414 28.6504C71.3061 28.632 71.275 28.6081 71.2496 28.58L68.7697 25.7907C68.7697 25.8346 68.7697 25.8757 68.7697 25.9168C68.7697 25.9578 68.7697 25.996 68.7697 26.0312V28.671H68.2839V24.9664H68.5863C68.6191 24.9665 68.6515 24.9725 68.6814 24.984Z" fill="#AFB1B8"/>
<path d="M76.0364 24.9664V25.3741H73.9777V26.5972H75.6457V26.9902H73.9777V28.2543H76.0364V28.662H73.3798V24.9664H76.0364Z" fill="#AFB1B8"/>
<path d="M15.1617 2.09032L40.9568 8.41363V30.5716L15.1617 24.2512V2.09032ZM13.5073 0.201538V25.3276L42.6079 32.4633V7.34019L13.5073 0.201538Z" fill="#AFB1B8"/>
<path d="M29.1039 44.127L0 36.9854V11.8619L29.1039 19.0007V44.127Z" fill="#AFB1B8"/>
<path d="M13.9897 1.8058L39.4484 8.04981L28.6215 17.3997L3.1594 11.1528L13.9897 1.8058ZM13.5073 0.201538L0 11.8625L29.1039 19.001L42.6078 7.34007L13.5073 0.201538Z" fill="#AFB1B8"/>
<path d="M30.7414 42.7136L42.6078 32.4664L30.7414 29.5541V42.7136Z" fill="#AFB1B8"/>
</svg>

<svg width="94" height="45" fill="none" xmlns="http://www.w3.org/2000/svg"><path d="M47.425 20.843a2.947 2.947 0 01-.605-1.989v-2.883c0-.884.2-1.555.602-2.015.4-.46 1.089-.688 2.065-.686.917 0 1.569.195 1.953.587.42.498.625 1.109.578 1.724v.678h-1.64v-.687c.005-.224-.01-.449-.048-.671a.65.65 0 00-.235-.4.95.95 0 00-.594-.155 1.005 1.005 0 00-.625.165.768.768 0 00-.272.44 3.332 3.332 0 00-.065.712v3.5c-.026.337.047.675.21.982a.77.77 0 00.328.238.9.9 0 00.424.055.893.893 0 00.58-.158.704.704 0 00.245-.425c.038-.233.056-.467.051-.701v-.71h1.641v.648a2.64 2.64 0 01-.567 1.813c-.377.428-1.02.642-1.964.642s-1.658-.229-2.062-.704zM54.257 20.872c-.415-.448-.622-1.102-.622-1.968v-3.033c0-.856.207-1.504.622-1.944.414-.44 1.107-.659 2.079-.657.965 0 1.654.219 2.069.657.414.44.625 1.088.625 1.944v3.033c0 .857-.21 1.514-.632 1.965-.421.452-1.107.678-2.062.678-.955 0-1.661-.229-2.08-.675zm2.843-.727c.149-.281.216-.589.197-.898v-3.713a1.65 1.65 0 00-.193-.88.776.776 0 00-.335-.242.907.907 0 00-.433-.051.918.918 0 00-.434.052.786.786 0 00-.337.241c-.15.275-.217.577-.197.88v3.731c-.02.309.047.617.197.898.095.094.214.17.346.222a1.158 1.158 0 00.843 0c.133-.052.25-.128.346-.222v-.018zM61.004 13.358h1.766l1.328 5.596 1.36-5.596h1.718l.174 8.077h-1.271l-.136-5.613-1.311 5.613h-1.02l-1.358-5.634-.126 5.634h-1.284l.16-8.077zM69.33 13.358h2.752c1.585 0 2.378.765 2.378 2.294 0 1.464-.835 2.195-2.504 2.194h-.937v3.59H69.32l.01-8.078zm2.351 3.452c.168.019.338.005.5-.039.16-.044.31-.118.434-.216.195-.273.281-.593.245-.912a2.525 2.525 0 00-.082-.733.594.594 0 00-.125-.222.703.703 0 00-.214-.162 1.759 1.759 0 00-.758-.13h-.659v2.414h.66zM76.91 13.358h1.824l1.872 8.077h-1.584l-.37-1.862h-1.627l-.38 1.862h-1.607l1.871-8.077zm1.559 5.28l-.636-3.39-.635 3.39h1.27zM82.117 13.358h1.19l2.275 4.608v-4.608h1.41v8.077h-1.131l-2.29-4.81v4.81h-1.457l.003-8.077zM90.294 18.356l-1.892-4.986h1.594l1.155 3.202 1.083-3.202h1.56l-1.869 4.986v3.08h-1.63v-3.08zM50.048 24.966v.423h-1.386v3.282h-.581v-3.282h-1.393v-.423h3.36zM54.393 28.671h-.449a.2.2 0 01-.126-.035.194.194 0 01-.074-.085l-.401-.88H51.42l-.4.88a.242.242 0 01-.062.1.207.207 0 01-.126.035h-.448l1.699-3.704h.59l1.72 3.689zm-2.813-1.375h1.603l-.68-1.508a2.699 2.699 0 01-.125-.349c-.024.07-.044.138-.064.197l-.062.155-.672 1.505zM57.321 28.307c.107.005.213.005.32 0 .091-.008.182-.023.271-.044.083-.017.165-.04.245-.067.075-.027.15-.059.227-.091v-.833h-.679a.14.14 0 01-.092-.03.086.086 0 01-.026-.03.074.074 0 01-.008-.037v-.285h1.318v1.42a2.566 2.566 0 01-.716.302c-.14.036-.281.061-.425.077a5.16 5.16 0 01-.496.023 2.594 2.594 0 01-.856-.138 2.09 2.09 0 01-.68-.387 1.79 1.79 0 01-.438-.587 1.851 1.851 0 01-.156-.768 1.92 1.92 0 01.153-.775c.097-.22.247-.419.438-.586.194-.167.425-.298.68-.384.29-.095.6-.142.91-.138.158 0 .316.01.472.032.138.02.274.05.404.094.12.038.233.088.34.146.104.058.203.123.296.194l-.163.229a.143.143 0 01-.055.05.172.172 0 01-.078.02.222.222 0 01-.105-.03 2.113 2.113 0 01-.167-.087 1.504 1.504 0 00-.227-.1 2.127 2.127 0 00-.313-.082 2.614 2.614 0 00-.431-.032 2.009 2.009 0 00-.656.102c-.189.066-.36.166-.5.294a1.29 1.29 0 00-.315.46 1.732 1.732 0 000 1.235c.074.174.19.333.34.466.139.128.308.228.495.294.216.064.445.089.673.073zM62.736 28.248h1.855v.423H62.17v-3.705h.58l-.013 3.282zM66.52 28.67h-.58v-3.704h.58v3.705zM68.681 24.984a.28.28 0 01.089.067l2.483 2.793a.881.881 0 010-.132V24.952h.506v3.719h-.292a.275.275 0 01-.126-.02.328.328 0 01-.091-.071l-2.48-2.79V28.672h-.486v-3.705h.302c.033 0 .066.006.095.018zM76.036 24.966v.408h-2.058v1.223h1.668v.393h-1.668v1.264h2.058v.408H73.38v-3.696h2.656zM15.162 2.09l25.795 6.324v22.158l-25.795-6.32V2.09zM13.507.202v25.126l29.1 7.135V7.34L13.508.202z" fill="#AFB1B8"/><path d="M29.104 44.127L0 36.985V11.862L29.104 19v25.126z" fill="#AFB1B8"/><path d="M13.99 1.806L39.448 8.05 28.622 17.4 3.159 11.153l10.83-9.347zM13.507.202L0 11.862l29.104 7.139 13.504-11.66L13.508.2zM30.741 42.714l11.867-10.248-11.867-2.912v13.16z" fill="#AFB1B8"/></svg>
